X:1661
T:Bob and Joan. TLY.005
T:Bobbing Joan. TLY.005
M:3/4
L:1/8
Q:150
S:Wm.Tildesley,Swinton,Lancs.1860s.
R:Misc.
O:England.
A:Lancashire.
N:First bar missing quaver in ms. Could be same as second bar, or d note
N:could be a crotche
H:1860.
Z:vmp.Taz Tarry.
K:G
GB dc"*"B2|GB dc Bd|ed cB A2|BG GD EG:|!
|:BG EF G2|BG EF GA|BG EF G2|AB cB FD:|]
%Quaver in MS. 


